!!!!SEGMENT: pl-gd--ee-1638--006-025_marenzio-luca--il-quinto-libro-de-madrigalia-a-cinque-voci-che-se-l-gridar.krn
!!!cenid: 15xx:907
!!!COM: Marenzio, Luca
!!!COM-rismID: pe30003955
!!!CDT: ~1553-1599/08/22
!!!CNT: Italian
!!!GTL: Il Quinto libro de madrigalia a cinque voci
!!!OTL: Che se'l gridar
!!!OMV: 025
!!!PDT: 1585
!!!AGN:
!!!SMS-siglum: PL-GD
!!!SMS-shelfmark: Ee 1638
!!!SMS-variant:
!!!SMS-altvar:
!!!SMS-shelfwork: 006-025 G
!!!NIFC-rismSourceID: 990039296
!!!NIFC-islandoraID: pl-gd:57883
!!!URL-pdf-islandora: https://repozytorium.nifc.pl/islandora/object/pl-gd%3A57883/datastream/PDF/view
!!!URL-scan: https://polish.musicsources.pl/pl/lokalizacje/galeria/klocki-introligatorskie/655 @EN{Scan on Polish Music Sources Website} @PL{Skany w portalu Dziedzictwo Muzyki Polskiej w otwartym dostępie}
!!!ONB-nifc: UWAGA: zbiór na stronach: Canto: s. 678-692, Alto: s. 526-540, Tenore: s. 374-388, Basso: s.222-236, Quinto: s. 69-84. Uwaga: utwory podzielone wg tytułów w spisach treści dostępnych na końcu każdej księgi głosowej.
!!!AIN: 1 alto 1 bass 1 soprn 1 tenor 1 vox
!!!key: F
**kern	**text	**kern	**text	**kern	**text	**kern	**text	**kern	**text
*part5	*part5	*part4	*part4	*part3	*part3	*part2	*part2	*part1	*part1
*staff5	*staff5	*staff4	*staff4	*staff3	*staff3	*staff2	*staff2	*staff1	*staff1
*I"BASSO	*	*I"TENORE	*	*I"QVINTO	*	*I"ALTO	*	*I"CANTO	*
*I'B	*	*I'T	*	*I'V	*	*I'A	*	*I'S	*
*ICvox	*	*ICvox	*	*ICvox	*	*ICvox	*	*ICvox	*
*Ibass	*	*Itenor	*	*Ivox	*	*Ialto	*	*Isoprn	*
*clefF4	*	*clefC4	*	*clefC4	*	*clefC3	*	*clefC1	*
*k[b-]	*	*k[b-]	*	*k[b-]	*	*k[b-]	*	*k[b-]	*
*F:	*	*F:	*	*F:	*	*F:	*	*F:	*
*M2/1	*	*M2/1	*	*M2/1	*	*M2/1	*	*M2/1	*
*met(C)	*	*met(C)	*	*met(C)	*	*met(C)	*	*met(C)	*
=1-	=1-	=1-	=1-	=1-	=1-	=1-	=1-	=1-	=1-
!LO:TX:a:i:t=Seconda parte.	!	!LO:TX:a:i:t=Seconda parte.	!	!LO:TX:a:i:t=Seconda parte.	!	!LO:TX:a:i:t=Seconda parte.	!	!LO:TX:a:i:t=Seconda parte.	!
00r	.	00r	.	2G/	CHe	1r	.	2r	.
.	.	.	.	4G/	ſe'l	.	.	2g/	CHe
.	.	.	.	4G/	gri-	.	.	.	.
.	.	.	.	2c\	-dar	4r	.	4g/	ſe'l
.	.	.	.	.	.	4c/	CHe	4g/	gri-
.	.	.	.	4r	.	4c/	ſe'l	2cc\	-dar
.	.	.	.	4c\	queſ-	4c/	gri-	.	.
=2-	=2-	=2-	=2-	=2-	=2-	=2-	=2-	=2-	=2-
.	.	.	.	4B-\	-to	2f\	-dar	4r	.
.	.	.	.	4A/	ſi-	.	.	4cc\	queſ-
.	.	.	.	4G/	-gnor	4r	.	4b-\	-to
.	.	.	.	4F/	m'hà	4f\	queſ-	4a\	ſi-
.	.	.	.	2G/	tol-	4e\	-to	4g\	-gnor
.	.	.	.	.	.	4d\	ſi-	4f/	m'hà
.	.	.	.	2A/	-to	4c/	-gnor	4.e/	tol-
.	.	.	.	.	.	4c/	m'hà	.	.
.	.	.	.	.	.	.	.	16d/	.
.	.	.	.	.	.	.	.	16c/	.
=3-	=3-	=3-	=3-	=3-	=3-	=3-	=3-	=3-	=3-
!	!	!	!	!	!	!LO:N:acc=#	!	!	!
2r	.	2G/	CHe	4r	.	2Bn/	tol-	2d/	.
.	.	.	.	4d\	Che	.	.	.	.
!	!	!	!	!	!	!	!	!LO:SIC:v:t=custos cc	!
2C/	CHe	4G/	ſe'l	4e\	ſe'l	4c/	-to	2g/	-to
!	!	!	!	!LO:SIC:v:t=custos e	!	!	!	!	!
.	.	4G/	gri-	4e\	gri-	4c/	che	.	.
!	!	!	!	!LO:LB:g=original	!	!	!	!LO:LB:g=original	!
4C/	ſe'l	2c\	-dar	2e\	-dar	4G/	ſe'l	4r	.
!	!	!	!	!	!	!LO:SIC:v:t=custos A	!	!	!
4C/	gri-	.	.	.	.	4G/	gri-	4cc\	Che
!	!	!	!	!	!	!LO:LB:g=original	!	!	!
2F\	-dar	4r	.	4r	.	2A/	-dar	4cc\	ſe'l
.	.	4c\	queſ-	4A/	queſ-	.	.	4cc\	gri-
=4-	=4-	=4-	=4-	=4-	=4-	=4-	=4-	=4-	=4-
4r	.	4B-\	-to	4d\	-to	2r	.	2f/	-dar
4F\	queſ-	4A/	ſi-	4c\	ſi-	.	.	.	.
4E\	-to	4G/	-gnor	4c\	-gnor	4r	.	4r	.
!	!	!	!	!LO:N:acc=#	!	!	!	!	!
4D/	ſi-	4F/	m'hà	4Bn\	m'hà	4d\	Che	4ff\	queſ-
4C/	-gnor	2G/	tol-	8c\	tol-	4g\	ſel	4ee\	-to
.	.	.	.	8C/	.	.	.	.	.
4BB-/	m'hà	.	.	2G/	.	4g\	gri-	4dd\	ſi-
2AA/	tol-	2A/	-to	.	.	2c/	-dar	4cc\	-gnor
.	.	.	.	4F#X/	.	.	.	4cc\	m'hà
=5-	=5-	=5-	=5-	=5-	=5-	=5-	=5-	=5-	=5-
4GG/	-to	4r	.	2G/	-to	4r	.	2b-\	tol-
!LO:SIC:v:t=custos D	!	!	!	!	!	!	!	!	!
*	*ij	*	*ij	*	*	*	*	*	*
4GG/	que-	4d\	queſ-	.	.	4g\	queſ-	.	.
!LO:LB:g=original	!	!	!	!	!	!	!	!	!
4D\	-ſto	4d\	-to	2r	.	4f\	-to	4a\	-to
!	!	!LO:SIC:v:t=custos f	!	!	!	!	!	!	!
*	*	*	*	*	*ij	*	*	*	*ij
4AA/	ſi-	4c\	ſi-	.	.	4e\	ſi-	4cc\	queſ-
!	!	!LO:LB:g=original	!	!	!	!	!	!	!
4BB-/	-gnor	4f\	-gnor	4r	.	4d\	-gnor	4b-\	-to
4C/	m'hà	4e\	m'hà	4c\	queſ-	4e\	m'hà	4a\	ſi-
2D/	tol-	2d\	tol-	4B-y\	-to	2.f\	tol-	4g/	-gnor
.	.	.	.	4A\	ſi-	.	.	4f/	m'hà
=6-	=6-	=6-	=6-	=6-	=6-	=6-	=6-	=6-	=6-
1C	-to	1G	-to	4c\	-gnor	.	.	1g	tol-
.	.	.	.	4G/	m'hà	8e\	.	.	.
.	.	.	.	.	.	8d\	.	.	.
.	.	.	.	2c\	tol-	2e\	.	.	.
2r	.	2r	.	1Fny	-to	4.f\	.	1a	-to
.	.	.	.	.	.	16e\	.	.	.
.	.	.	.	.	.	16d\	.	.	.
*	*Xij	*	*Xij	*	*	*	*	*	*
2F\	Tor	2A/	Tor	.	.	2c/	-to	.	.
*	*	*	*	*	*Xij	*	*	*	*Xij
=7-	=7-	=7-	=7-	=7-	=7-	=7-	=7-	=7-	=7-
2E\	non	2G/	non	2r	.	1r	.	0r	.
2F\	po-	2A/	po-	2c\	Tor	.	.	.	.
!	!	!	!	!LO:SIC:v:t=custos c	!	!	!	!	!
!	!	!	!	!LO:N:acc=#	!	!LO:SIC:v:t=custos e	!	!	!
2D/	-trã-	2F/	-tram-	2Bn\	non	2f\	Tor	.	.
!	!	!	!	!LO:LB:g=original	!	!LO:LB:g=original	!	!	!
2C/	-mi	2G/	-mi	2c\	po-	2e\	non	.	.
=8-	=8-	=8-	=8-	=8-	=8-	=8-	=8-	=8-	=8-
!	!	!	!	!	!	!	!	!LO:SIC:v:t=custos b	!
1r	.	0r	.	2A/	-tram-	2f\	po-	2cc\	Tor
!	!	!	!	!	!	!	!	!LO:LB:g=original	!
!	!	!	!	!	!	!	!	!LO:N:acc=#	!
.	.	.	.	2G/	-mi	2d\	-trãm(m)'	2bn\	non
4r	.	.	.	1r	.	2c/	un	2cc\	po-
2C/	un	.	.	.	.	.	.	.	.
.	.	.	.	.	.	4.c/	rõ(m)-	2a\	-trãm(m)'
4.F\	rom-	.	.	.	.	.	.	.	.
.	.	.	.	.	.	8c/	-per	.	.
=9-	=9-	=9-	=9-	=9-	=9-	=9-	=9-	=9-	=9-
.	.	4r	.	2C/	un	2c/	di	2g/	un
!LO:N:acc=#	!	!	!	!	!	!	!	!	!
8En\	-per	.	.	.	.	.	.	.	.
4E\	di	2c\	un	.	.	.	.	.	.
4r	.	.	.	4.G/	rom-	4r	.	4.g/	rom-
4G\	ſo-	4.B-\	rom-	.	.	4d\	ſoſ-	.	.
.	.	.	.	8G/	-per	.	.	8g/	-per
2F\	-ſpi-	.	.	2c\	di	2f\	-pi-	2a\	di
.	.	8A/	-per	.	.	.	.	.	.
.	.	4A/	di	.	.	.	.	.	.
2C/	-ri	4r	.	4r	.	2e\	-ri	4r	.
.	.	4c\	ſo-	4G/	ſo-	.	.	4g\	ſo-
=10-	=10-	=10-	=10-	=10-	=10-	=10-	=10-	=10-	=10-
4r	.	2B-\	-ſpi-	2d\	-ſpi-	4f\	vn	2b-y\	-ſpi-
!LO:SIC:v:t=custos A	!	!	!	!	!	!	!	!	!
4B-\	Tor	.	.	.	.	4.f\	rom-	.	.
!LO:LB:g=original	!	!	!	!	!	!	!	!	!
2A\	non	2F/	-ri	4c\	-ri	.	.	2cc\	-ri
.	.	.	.	.	.	8f\	-per	.	.
.	.	.	.	2f\	un	4c/	di	.	.
2B-\	po-	2f\	Tor	.	.	4r	.	4r	.
.	.	.	.	4.B-y\	rom-	4d\	ſo-	4f/	vn
2G\	-trã(m)-	2e\	non	.	.	2B-y/	-ſpi-	4.b-\	rom-
.	.	.	.	8B-\	-per	.	.	.	.
.	.	.	.	4G/	di	.	.	.	.
.	.	.	.	.	.	.	.	8b-\	-per
=11-	=11-	=11-	=11-	=11-	=11-	=11-	=11-	=11-	=11-
2F\	-m'un	2f\	potr-	4r	.	4c/	-ri	2a\	di
.	.	.	.	2c\	vn	2F/	vn	.	.
!	!	!LO:SIC:v:t=custos c	!	!	!	!	!	!	!
4.BB-/	rom-	2d\	-am-	.	.	.	.	2r	.
.	.	.	.	4.B-\	rom-	4.f\	rõ(m)-	.	.
8BB-/	-per	.	.	.	.	.	.	.	.
*	*	*	*	*	*	*	*	*	*ij
!	!	!LO:LB:g=original	!	!	!	!	!	!	!
2F\	di	4c\	-m'vn	.	.	.	.	4cc\	vn
.	.	.	.	8A/	-per	8f\	-per	.	.
.	.	4.A/	rom-	2F/	di	2f\	di	4.cc\	rom-
4r	.	.	.	.	.	.	.	.	.
.	.	8A/	-per	.	.	.	.	8cc\	-per
!	!	!	!	!LO:SIC:v:t=custos d	!	!LO:SIC:v:t=custos g	!	!	!
4D/	ſo-	4d\	di	4f\	ſo-	4a\	ſo-	4dd\	di
*	*	*	*	*	*	*	*	*	*Xij
!	!	!	!	!LO:LB:g=original	!	!LO:LB:g=original	!	!	!
=12-	=12-	=12-	=12-	=12-	=12-	=12-	=12-	=12-	=12-
!	!	!LO:N:acc=#	!	!	!	!	!	!	!
1G	-ſpi-	4Bn\	ſo-	1d	-ſpi-	1g	-ſpi-	4r	.
!	!	!	!	!	!	!	!	!LO:SIC:v:t=custos d	!
.	.	2c\	-ſpi-	.	.	.	.	4g/	ſo-
!	!	!	!	!	!	!	!	!LO:LB:g=original	!
.	.	.	.	.	.	.	.	2d/	-ſpi-
!	!	!LO:N:acc=#	!	!	!	!	!	!	!
.	.	4Bn\	.	.	.	.	.	.	.
1C	-ri	1c	-ri	2c\	-ri	1g	-ri	1e	-ri
.	.	.	.	2G/	Vn	.	.	.	.
=13-	=13-	=13-	=13-	=13-	=13-	=13-	=13-	=13-	=13-
2r	.	2r	.	1.G	pian-	2r	.	0r	.
2C/	Vn	2E/	Vn	.	.	2c/	Vn	.	.
1.C	pian-	1E	piã(n)-	.	.	1c	piã(n)-	.	.
.	.	.	.	2F/	-ger	.	.	.	.
=14-	=14-	=14-	=14-	=14-	=14-	=14-	=14-	=14-	=14-
.	.	1G	-ger	4E/	baſ-	1c	-ger	00r	.
.	.	.	.	4F/	.	.	.	.	.
2BB-/	-ger	.	.	1G	.	.	.	.	.
0AA	baſs'-	0A	baſ-	.	.	0c	baſ-	.	.
.	.	.	.	4F#X/	.	.	.	.	.
.	.	.	.	4E/	.	.	.	.	.
=15-	=15-	=15-	=15-	=15-	=15-	=15-	=15-	=15-	=15-
.	.	.	.	1F#X	.	.	.	.	.
2GG/	-un	2D/	-s'un	2G/	-s'un	2B-/	-so	.	.
4.D/	mor-	4.F/	mor-	4.B-\	mor-	2r	.	.	.
8C/	-mo-	8E/	-mo-	8A/	-mo-	.	.	.	.
=16-	=16-	=16-	=16-	=16-	=16-	=16-	=16-	=16-	=16-
4BB-/	-rar	4D/	-rar	4G/	-rar	1r	.	1r	.
!LO:SIC:v:t=custos GG	!	!	!	!	!	!	!	!	!
4AA/	oc-	4C/	oc-	4Fny/	oc-	.	.	.	.
!LO:LB:g=original	!	!	!	!	!	!	!	!	!
2GG/	-col-	2G/	-col-	2E/	-col-	.	.	.	.
!	!	!LO:SIC:v:t=custos c	!	!	!	!	!	!	!
1FF	-to	2C/	-to	1F	-to	2r	.	2r	.
!	!	!LO:LB:g=original	!	!	!	!	!	!	!
.	.	1.c\	o	.	.	1.f\	o	1.a\	o
=17-	=17-	=17-	=17-	=17-	=17-	=17-	=17-	=17-	=17-
1F	O	.	.	1A	O	.	.	.	.
1r	.	2d\	ſe	2D/	ſe	2f#X\	ſe	2a\	ſe
!	!	!	!	!LO:SIC:v:t=custos D	!	!	!	!	!
.	.	4d\	pur	4D/	pur	4f#\	pur	4a\	pur
!	!	!	!	!LO:LB:g=original	!	!	!	!	!
.	.	2d\	nõ(n)-	2D/	non-	2f#\	non	2a\	non
=18-	=18-	=18-	=18-	=18-	=18-	=18-	=18-	=18-	=18-
00r	.	.	.	.	.	.	.	.	.
.	.	4d\	-con-	4G/	-con-	4g\	con-	4b-\	con-
.	.	2f\	-ſen-	2F/	-ſen-	2a\	-ſen-	2cc\	-ſen-
.	.	4f\	-te	4D/	-te	4a\	-te	4dd\	-te
.	.	2d\	ch'io	2G/	ch'io	2g\	ch'io	2b-\	ch'io
.	.	4f\	re-	4F/	re-	4a\	reſ-	4cc\	reſ-
=19-	=19-	=19-	=19-	=19-	=19-	=19-	=19-	=19-	=19-
.	.	2.d\	-ſpi-	1B-	-ſpi-	2fny\	-pi.-	1.dd	-pi-
!	!	!	!	!	!	!LO:SIC:v:t=custos a	!	!	!
.	.	.	.	.	.	2g\	.	.	.
.	.	4e\	.	.	.	.	.	.	.
!	!	!	!	!	!	!LO:LB:g=original	!	!	!
.	.	2f\	.	1A	-ri	1a	-ri	.	.
.	.	2e\	-ri	.	.	.	.	2cc#X\	-ri
=20-	=20-	=20-	=20-	=20-	=20-	=20-	=20-	=20-	=20-
1.D	O	2r	.	2r	.	2r	.	2r	.
*	*	*	*	*	*	*	*ij	*	*
.	.	1A	O	1d	O	1f#X	o	1a	o
2GG/	ſe	2B-y\	ſe	2d\	ſe	2g\	ſe	2r	.
=21-	=21-	=21-	=21-	=21-	=21-	=21-	=21-	=21-	=21-
!	!	!	!	!LO:N:acc=#	!	!	!	!	!
4GG/	pur	4G/	pur	4Bn\	pur	4d\	pur	0r	.
2GG/	non	2G/	non	2B\	non	2d\	non	.	.
4C/	con-	4G/	con-	4c\	con-	4e\	con-	.	.
2BB-/	-ſen-	2B-\	-ſen-	2d\	-ſen-	2fny\	-ſen-	.	.
4GG/	-te	4B-\	-te	4d\	-te	4g\	-te	.	.
2C/	ch'io	2G/	ch'io	2c\	ch'io	2e\	ch'io	.	.
=22-	=22-	=22-	=22-	=22-	=22-	=22-	=22-	=22-	=22-
.	.	.	.	.	.	.	.	1r	.
!	!	!LO:SIC:v:t=custos G	!	!	!	!	!	!	!
4BB-/	re-	4B-\	re-	4d\	re-	4f\	re-	.	.
!	!	!LO:LB:g=original	!	!	!	!	!	!	!
2E-X\	-ſpi-	4.G/	-ſpi-	4B-y\	-ſpi-	1g	-ſpi.-	.	.
!	!	!	!	!LO:SIC:v:t=custos d	!	!	!	!	!
.	.	.	.	4c\	.	.	.	.	.
.	.	8A/	.	.	.	.	.	.	.
!	!	!	!	!LO:LB:g=original	!	!	!	!	!
1D	-ri	2B-\	.	2d\	-ri	.	.	2r	.
.	.	2A/	-ri	4r	.	2f#X\	-ri	2a\	Al-
.	.	.	.	2D/	Al-	.	.	.	.
*	*	*	*	*	*	*	*Xij	*	*
=23-	=23-	=23-	=23-	=23-	=23-	=23-	=23-	=23-	=23-
!	!	!LO:N:acc=#	!	!	!	!	!	!LO:SIC:v:t=custos g	!
2GG/	Al-	2Bn\	Al-	.	.	4r	.	2dd\	-men
.	.	.	.	2G/	-men	4g\	Al-	.	.
!	!	!	!	!	!	!	!	!LO:LB:g=original	!
2C/	-men	2c\	-men	.	.	2e\	-men	2g/	non
.	.	.	.	2C/	non	.	.	.	.
2FF/	non	2A/	non	.	.	2fny\	non	2ccny\	fia
.	.	.	.	2F/	fia	.	.	.	.
2BB-/	fia	2B\	fia	.	.	2d\	fia	2f/	che
.	.	.	.	2D/	che	.	.	.	.
=24-	=24-	=24-	=24-	=24-	=24-	=24-	=24-	=24-	=24-
!LO:SIC:v:t=custos g	!	!	!	!	!	!LO:N:acc=#	!	!	!
2GG/	che	2d\	che	.	.	2Bn/	che	1g	ſol
.	.	.	.	2d\	ſol	.	.	.	.
!LO:LB:g=original	!	!LO:N:acc=#	!	!	!	!	!	!	!
2G\	ſol	4Bn\	ſol	.	.	2d\	ſol	.	.
!	!	!	!	!LO:N:acc=#	!	!	!	!	!
.	.	4d\	mi-	2Bn\	mi-	.	.	.	.
2Eny\	mi-	2e#X\	-ran-	.	.	2G/	mi-	2g/	mi-
.	.	.	.	2c\	-rand'-	.	.	.	.
!	!	!	!	!	!	!LO:SIC:v:t=custos e	!	!	!
1F\	-rand'-	4A/	-do	.	.	1c\	-ran.-	1a\	-rand'-
.	.	4c\	mi-	2A/	-il	.	.	.	.
!	!	!	!	!	!	!LO:LB:g=original	!	!	!
=25-	=25-	=25-	=25-	=25-	=25-	=25-	=25-	=25-	=25-
.	.	2F/	-rand'-	.	.	.	.	.	.
.	.	.	.	2c\	vol-	.	.	.	.
!	!	!	!	!	!	!LO:N:acc=#	!	!	!
2C/	-il	4G/	-il	.	.	2en\	-d'il	2g/	-il
.	.	2c\	vol-	4G/	-to	.	.	.	.
1G	vol-	.	.	1r	.	1d	vo-	1g	vol-
!	!	!LO:N:acc=#	!	!	!	!	!	!	!
.	.	8Bn\	.	.	.	.	.	.	.
!	!	!LO:SIC:v:t=custos B	!	!	!	!	!	!	!
.	.	8A\	.	.	.	.	.	.	.
!	!	!LO:LB:g=original	!	!	!	!	!	!	!
!	!	!LO:N:acc=#	!	!	!	!	!	!	!
.	.	2Bn\	.	.	.	.	.	.	.
=26-	=26-	=26-	=26-	=26-	=26-	=26-	=26-	=26-	=26-
1C	-to	1c	-to	2r	.	1e	-to	1g	-to
.	.	.	.	1c	Non	.	.	.	.
1F	Non	1A	Non	.	.	1c	Non	1r	.
.	.	.	.	1A\	vi-	.	.	.	.
=27-	=27-	=27-	=27-	=27-	=27-	=27-	=27-	=27-	=27-
1.D	vi	1.f	vi	.	.	1.d	vi	1a	Non
.	.	.	.	2G/	-ſian	.	.	.	.
.	.	.	.	0F	no-	.	.	2b-\	vi
2C/	ſian	2eny\	ſian	.	.	2e\	ſiam	2cc\	ſian
=28-	=28-	=28-	=28-	=28-	=28-	=28-	=28-	=28-	=28-
1BB-	no-	4.d\	no-	.	.	1f	no-	1dd	no-
.	.	8c\	.	.	.	.	.	.	.
.	.	2B-ny\	.	.	.	.	.	.	.
1FF	-ti	1A	-ti	1F	-ti	1f	-ti	1cc	-ti
=29-	=29-	=29-	=29-	=29-	=29-	=29-	=29-	=29-	=29-
00r	.	00r	.	2F/	tut-	1.c	tut-	2cc\	tut-
!	!	!	!	!LO:SIC:v:t=custos A	!	!	!	!	!
.	.	.	.	2G/	ti i	.	.	2b-\	ti i
!	!	!	!	!LO:LB:g=original	!	!	!	!	!
.	.	.	.	2A/	miei	.	.	1a	mie-
.	.	.	.	2B-y\	mar-	2d\	-ti	.	.
=30-	=30-	=30-	=30-	=30-	=30-	=30-	=30-	=30-	=30-
.	.	.	.	0c	-ti-	2e\	miei	2g/	-i
.	.	.	.	.	.	2f\	mar-	2.f/	mar-
.	.	.	.	.	.	1g	-ti-	.	.
.	.	.	.	.	.	.	.	8e/	-ti-
!	!	!	!	!	!	!	!	!LO:SIC:v:t=custos e	!
.	.	.	.	.	.	.	.	8d/	.
!	!	!	!	!	!	!	!	!LO:LB:g=original	!
.	.	.	.	.	.	.	.	2e/	.
=31-	=31-	=31-	=31-	=31-	=31-	=31-	=31-	=31-	=31-
2r	.	1c	non	2F/	-ti	2a\	-ri	1f	-ri
1F	non	.	.	2A/	Non	1c	non	.	.
.	.	2.A/	vi	1.f	vi	.	.	2r	.
1D\	vi	.	.	.	.	1d\	vi	2a\	Non
.	.	4G/	ſian	.	.	.	.	.	.
=32-	=32-	=32-	=32-	=32-	=32-	=32-	=32-	=32-	=32-
.	.	0F	no-	.	.	.	.	2b-\	vi
2C/	ſian	.	.	2e\	ſian	2e\	ſian	2cc\	ſian
1BB-	no-	.	.	4.d\	no-	1f	no-	1dd	no-
.	.	.	.	8c\	.	.	.	.	.
.	.	.	.	2B-\	.	.	.	.	.
=33-	=33-	=33-	=33-	=33-	=33-	=33-	=33-	=33-	=33-
1FF	-ti	1F	-ti	1A	-ti	1f	-ti	1cc	-ti
!	!	!	!	!	!	!LO:SIC:v:t=custos g	!	!	!
2FF/	tut-	1.C	tut-	2A/	tut-	2a\	tut-	2cc\	tut-
!LO:SIC:v:t=custos AA	!	!	!	!	!	!LO:LB:g=original	!	!	!
2GG/	ti i	.	.	2B-\	ti i	2g\	-ti	2b-\	ti i
!LO:LB:g=original	!	!	!	!	!	!	!	!	!
=34-	=34-	=34-	=34-	=34-	=34-	=34-	=34-	=34-	=34-
2AA/	miei	.	.	1.c	miei	1f	miei	1a	miei
2BB-/	mar-	2D/	ti i	.	.	.	.	.	.
0C	-ti-	2E/	miei	.	.	4.e\	mar-	2g/	mar-
.	.	.	.	.	.	8d\	.	.	.
.	.	2F/	mar-	2A/	mar-	2c/	.	2.f/	-ti-
=35-	=35-	=35-	=35-	=35-	=35-	=35-	=35-	=35-	=35-
.	.	1G	-ti-	1G	-ti-	1c	-ti-	.	.
.	.	.	.	.	.	.	.	8e/	.
.	.	.	.	.	.	.	.	8d/	.
.	.	.	.	.	.	.	.	2e/	.
!LO:N:vis=00	!	!LO:N:vis=00	!	!LO:N:vis=00	!	!LO:N:vis=00	!	!LO:N:vis=00	!
0.FF	-ri.	0.A/	-ri.	0.F	-ri.	0.c/	-ri.	0.f	-ri.
==	==	==	==	==	==	==	==	==	==
*-	*-	*-	*-	*-	*-	*-	*-	*-	*-
!!!system-decoration: [(s1,s2,s3,s4,s5)]
!!!ENC: Mateusz Solarz
!!!END: 2022-06-10
!!!ENC: Natalia Wrzos
!!!END: 2022-07-21
!!!YEC: Copyright 2022 Narodowy Instytut Fryderyka Chopina (https://polishscores.org)
!!!YEM: Licence CC BY 4.0 (https://creativecommons.org/licenses/by/4.0)
